X:1
T:Restoration
T:James P. Carrell, 1821 Arranged by William Walker, 1835 A minor             Alto by William Walker, 1867
T:Transcribed from Southern Harmony, 1835, and Christian Harmony, 1867.
T:John Newton, 1779              87. 87.                 
%%score [ 1 2 3 ( 4 5 ) ]
L:1/8
Q:1/4=100
M:4/4
K:C
V:1 treble nm="Tr." snm="Tr."
V:2 treble nm="A." snm="A."
V:3 treble-8 nm="T." snm="T."
V:4 bass nm="B." snm="B."
V:5 bass 
V:1
"_1. Mercy,  O   thou  Son  of  Da – vid!  Thus blind Bartimaeus prayed;      Others   by    thy   word  are  sa–ved,  Now  to  me  af – ford  thine  aid:   –ford thine aid:\n2.  Many  for   his    crying  chid  him,   But  he  called the louder still;       Till  the  gracious  Sa–vior  bid  him   Come and ask me what you will.      what you will." A2 A2 c2 d2 | %1
 e2 e2 cB A2 | d2 d2 e2 cd | e2 d2 e4 |: A2 G2 cd e2 | g2 ed c2 !fermata!d2 | e2 c2 AB c2 |1 %7
 B2 B2 A4 :|2 B2 B2 A4- | A4 |] %10
V:2
"_3. Money  was  not  what  he  wanted,  Though by begging used to live;   But  he asked, and Je – sus  granted   Alms which none but he could give:    he could give,\n4. Lord, remove this grievous blindness,  Let  my  eyes  behold  the  day;  Straight he saw, and won by kindness,  Followed  Je – sus    in  the  way.       in   the   way." c2 c2 c2 BA | %1
 G2 G2 AB c2 | B2 B2 c2 GA | E2 G2 A4 |: c2 B2 A2 G2 | B2 cB A2 !fermata!G2 | c2 c2 c2 G2 |1 %7
 E2 G2 A4 :|2 E2 G2 A4- | A4 |] %10
V:3
"_5. O!  methinks  I  hear  him  praising,   Publishing   to     all  around;     Friends, is  not my case  a –ma –zing?   What  a   Sa – vior  I  have  found:     I have found.\n6. O!  that  all  the blind but knew him, And would be advised by me!     Sure – ly,  would  they  hasten to him,   He  would  cause  them all to see.      all to see." A2 A2 A2 GA | %1
 c2 c2 AG E2 | G2 G2 A2 GA | c2 d2 e4 |: e2 g2 ed c2 | d2 ed c2 !fermata!G2 | A2 c2 AG E2 |1 %7
 G2 G2 A4 :|2 G2 G2 A4- | A4 |] %10
V:4
"________________________________________________________________________\nThe melody (\nTenor\n) was originally written by James P. Carrell in his \nSongs of Zion\n,\n   1835,  called \nJewin Street\n, with words from Robert Robinson's hymn, \nCome, thou \n   fount of every blessing\n.\nWilliam Walker's version was re-arranged by T. B. Newton and S. W. Everett for the\n   1911 edition of \nThe Sacred Harp\n, p. 312; they retuned to the words of Robinson's\n   hymn." A,2 A,2 A,2 G,E, | %1
 C,2 C,2 C,D, E,2 | G,2 G,2 A,2 C2 | [C,G,]2 [D,G,]2 E,4 |: A,2 G,2 A,2 C2 | %5
 G,2 A,G, E,2 !fermata!G,2 | A,2 G,2 E,2 C,D, |1 E,2 E,2 A,,4 :|2 E,2 E,2 A,,4- | A,,4 |] %10
V:5
 x8 | x8 | x4 x2 G,E, | x8 |: x8 | x8 | x8 |1 x8 :|2 x8 | x4 |] %10

